casedrop/img/balance/images/megafone.svg

<svg width="118" height="22" viewBox="0 0 118 22" fill="none" xmlns="http://www.w3.org/2000/svg">
<path d="M64.0991 11.1048V14.2975C64.0991 14.416 64.0021 14.5186 63.8771 14.5186H61.3554C59.3187 14.4858 58.5011 13.5468 58.4699 11.5054C58.5011 9.52735 59.2305 8.54033 61.3674 8.51068V8.51517H66.6824V6.32961H61.3674C57.581 6.34884 56.0212 7.95837 55.9458 11.3793L55.9426 11.6477L55.9458 11.6522C56.0268 14.9722 57.5834 16.6026 61.2608 16.657V16.6596H65.1523C66.0508 16.6596 66.6953 15.9097 66.6953 15.119V11.1044L64.0991 11.1048ZM84.9351 16.6543V12.401H91.4027V10.2907H84.9351V7.10369C84.9351 6.98191 85.0337 6.88097 85.1579 6.88097H91.5526V4.6962H83.8827C82.985 4.6962 82.339 5.44449 82.339 6.23683V16.6543H84.9351ZM47.8438 14.4808C47.7172 14.4808 47.621 14.379 47.621 14.2588V12.413H54.0862V10.3043H47.621V8.73164C47.621 8.61147 47.7172 8.50892 47.8438 8.50892H54.2393V6.32336H46.5686C45.6692 6.32336 45.0232 7.07485 45.0232 7.86559V15.1241C45.0232 15.9172 45.6692 16.6671 46.5686 16.6671H54.2393V14.4808H47.8438ZM40.7898 4.45073C39.5755 4.45073 38.8004 5.09807 38.2257 6.39995L34.8448 14.184L31.4615 6.39995C30.886 5.09807 30.1109 4.45073 28.8958 4.45073C27.7592 4.45073 26.585 5.26391 26.585 7.03046V16.6676H29.1763V7.29404L32.5797 15.0124C33.0373 16.0908 33.7723 16.7678 34.8424 16.7694H34.845C35.9142 16.7674 36.6508 16.0908 37.1077 15.0124L40.5102 7.29404V16.6676H43.1016V7.03046C43.1016 5.26391 41.9256 4.45073 40.7898 4.45073ZM72.6001 12.4131L74.196 8.6581C74.2464 8.54033 74.3378 8.50908 74.4068 8.50908H74.4081C74.477 8.50908 74.57 8.54036 74.6189 8.6581L76.2171 12.4131H72.6001ZM76.5397 7.47799C76.1044 6.53583 75.2396 6.07676 74.4084 6.07676H74.4071C73.5751 6.07676 72.7102 6.53583 72.2782 7.47799L68.0373 16.6673H70.7962L71.7203 14.4833H77.0963L78.0212 16.6673H80.7801L76.5397 7.47799ZM114.782 6.3236V13.2368L110.326 7.16001C109.95 6.68732 109.532 6.3236 108.672 6.3236C107.883 6.3236 106.907 6.9477 106.907 8.13261V16.6738H109.502V9.76217L113.938 15.859C114.324 16.3846 114.724 16.6738 115.612 16.6738C116.402 16.6738 117.377 16.1074 117.377 14.864V6.3236H114.782ZM99.2312 14.6267C96.5813 14.6267 95.8191 13.654 95.8191 11.4885V11.4773C95.8191 9.37585 96.5461 8.34316 99.2312 8.34316C101.92 8.34316 102.645 9.37585 102.645 11.4773V11.4885C102.645 13.654 101.881 14.6267 99.2312 14.6267ZM105.171 11.4773C105.171 7.85605 103.725 6.16721 99.2312 6.16721C94.741 6.16721 93.2942 7.85605 93.2918 11.4773V11.4845C93.2918 15.0497 94.7787 16.769 99.2312 16.769C103.685 16.769 105.171 15.0497 105.171 11.4845V11.4773Z" fill="#00B956"/>
<path d="M9.01434 9.17902C8.29777 9.17902 7.71585 8.59818 7.71585 7.88274C7.71585 7.1657 8.29777 6.58486 9.01434 6.58486C9.73092 6.58486 10.3112 7.1657 10.3112 7.88274C10.3112 8.59818 9.73092 9.17902 9.01434 9.17902ZM11.0046 0.622635C5.26956 0.622635 0.623047 5.26776 0.623047 10.9993C0.623047 15.9728 4.12496 20.1293 8.79713 21.1411V11.8293L8.79777 11.8286C8.80822 11.3792 9.16648 11.017 9.61213 11.0002L10.0442 10.9996H10.9234C10.9844 10.9996 11.0341 10.9515 11.0373 10.8914L11.0379 0.624494M18.1586 16.6599C17.4428 16.6599 16.8609 16.0791 16.8609 15.3621C16.8609 14.6474 17.4428 14.0666 18.1586 14.0666C18.8744 14.0666 19.4563 14.6474 19.4563 15.3621C19.4563 16.0791 18.8744 16.6599 18.1586 16.6599ZM15.1168 16.6599C14.401 16.6599 13.8199 16.0791 13.8199 15.3621C13.8199 14.6474 14.401 14.0666 15.1168 14.0666C15.8333 14.0666 16.4145 14.6474 16.4145 15.3621C16.4145 16.0791 15.8333 16.6599 15.1168 16.6599ZM12.0733 16.6599C11.3576 16.6599 10.7748 16.0791 10.7748 15.3621C10.7748 14.6474 11.3576 14.0666 12.0733 14.0666C12.7907 14.0666 13.3718 14.6474 13.3718 15.3621C13.3718 16.0791 12.7907 16.6599 12.0733 16.6599ZM12.2857 0.700841V10.9989V11.3995V11.4068L12.2832 11.4093C12.2793 11.8724 11.9016 12.2465 11.4368 12.2465H11.0376H10.1591C10.095 12.2465 10.0437 12.2978 10.0437 12.3611V21.3325C10.3603 21.3613 10.6793 21.3774 11.0039 21.3774C16.7381 21.3774 21.3854 16.7306 21.3854 10.9991C21.3854 5.70267 17.4148 1.33215 12.2857 0.700841Z" fill="#00B956"/>
</svg>

<svg width="118" height="22" fill="none" xmlns="http://www.w3.org/2000/svg"><path d="M64.1 11.105v3.192a.222.222 0 01-.223.222h-2.522c-2.036-.033-2.854-.972-2.885-3.014.031-1.978.76-2.965 2.897-2.994v.004h5.315V6.33h-5.315c-3.786.019-5.346 1.628-5.421 5.05l-.003.268.003.004c.08 3.32 1.637 4.95 5.315 5.005v.003h3.891c.899 0 1.543-.75 1.543-1.541v-4.015H64.1zm20.835 5.55V12.4h6.468v-2.11h-6.468V7.104c0-.122.099-.223.223-.223h6.395V4.696h-7.67c-.898 0-1.544.748-1.544 1.54v10.418h2.596zM47.844 14.48a.222.222 0 01-.223-.222v-1.846h6.465v-2.109h-6.465V8.732c0-.12.096-.223.223-.223h6.395V6.323h-7.67c-.9 0-1.546.752-1.546 1.543v7.258c0 .793.646 1.543 1.546 1.543h7.67v-2.186h-6.395zM40.79 4.45c-1.215 0-1.99.647-2.564 1.949l-3.381 7.784L31.462 6.4c-.576-1.302-1.351-1.95-2.566-1.95-1.137 0-2.311.814-2.311 2.58v9.638h2.591V7.294l3.404 7.718c.457 1.079 1.192 1.756 2.262 1.757h.003c1.07-.002 1.806-.678 2.263-1.757l3.402-7.718v9.374h2.592V7.03c0-1.766-1.176-2.58-2.312-2.58zm31.81 7.962l1.596-3.755c.05-.118.142-.149.21-.149h.002a.22.22 0 01.21.15l1.6 3.754H72.6zm3.94-4.935c-.436-.942-1.3-1.401-2.132-1.401-.833 0-1.698.459-2.13 1.401l-4.24 9.19h2.758l.924-2.185h5.376l.925 2.184h2.76L76.54 7.478zm38.242-1.154v6.913l-4.456-6.077c-.376-.473-.794-.836-1.654-.836-.789 0-1.765.624-1.765 1.809v8.54h2.595v-6.91l4.436 6.096c.386.526.786.815 1.674.815.79 0 1.765-.567 1.765-1.81v-8.54h-2.595zm-15.55 8.303c-2.65 0-3.413-.973-3.413-3.139v-.01c0-2.102.727-3.135 3.412-3.135 2.689 0 3.414 1.033 3.414 3.134v.011c0 2.166-.764 3.139-3.414 3.139zm5.939-3.15c0-3.621-1.446-5.31-5.94-5.31-4.49 0-5.937 1.689-5.94 5.31v.008c0 3.565 1.488 5.284 5.94 5.284 4.454 0 5.94-1.72 5.94-5.284v-.008zM9.014 9.179a1.298 1.298 0 110-2.596 1.298 1.298 0 010 2.596zm1.99-8.556C5.27.623.624 5.268.624 10.999c0 4.974 3.502 9.13 8.174 10.142V11.83a.848.848 0 01.815-.83h1.312c.06 0 .11-.049.113-.109V.624M18.16 16.66a1.298 1.298 0 110-2.591 1.298 1.298 0 010 2.59zm-3.042 0a1.297 1.297 0 11.001-2.595 1.297 1.297 0 01-.001 2.595zm-3.044 0c-.715 0-1.298-.58-1.298-1.298a1.298 1.298 0 012.597 0c0 .717-.581 1.298-1.299 1.298zM12.286.7v10.708l-.003.002a.846.846 0 01-.846.837h-1.278a.115.115 0 00-.115.115v8.971c.316.03.635.045.96.045 5.734 0 10.381-4.646 10.381-10.378 0-5.296-3.97-9.667-9.1-10.298z" fill="#00B956"/></svg>
